packages/ffe-icons/icons/filled/sm/robot.svg

<svg xmlns="http://www.w3.org/2000/svg" height="20" viewBox="0 -960 960 960" width="20"><path d="M360.212-490.001q25.942 0 43.864-18.135 17.923-18.135 17.923-44.076 0-25.942-18.135-43.864-18.135-17.923-44.076-17.923-25.942 0-43.864 18.135-17.923 18.135-17.923 44.076 0 25.942 18.135 43.864 18.135 17.923 44.076 17.923Zm240 0q25.942 0 43.864-18.135 17.923-18.135 17.923-44.076 0-25.942-18.135-43.864-18.135-17.923-44.076-17.923-25.942 0-43.864 18.135-17.923 18.135-17.923 44.076 0 25.942 18.135 43.864 18.135 17.923 44.076 17.923Zm-250.213 326v-121.691q0-5.385 3.462-8.847 3.462-3.462 8.847-3.462h91.693v134H349.999Zm156 0v-134h91.693q5.385 0 8.847 3.462 3.462 3.462 3.462 8.847v121.691H505.999Zm-277.939 0q-26.578 0-45.318-18.891-18.741-18.89-18.741-45.417V-624q0-71.666 50.167-121.832Q264.334-795.999 336-795.999h288q71.666 0 121.832 50.167Q795.999-695.666 795.999-624v395.691q0 26.527-18.891 45.417-18.89 18.891-45.417 18.891h-69.692v-121.691q0-26.527-18.89-45.417t-45.417-18.89H362.308q-26.578 0-45.505 18.89-18.927 18.89-18.927 45.417v121.691H228.06Z"/></svg>

<svg xmlns="http://www.w3.org/2000/svg" height="20" viewBox="0 -960 960 960" width="20"><path d="M360.21-490q25.94 0 43.87-18.14Q422-526.27 422-552.21t-18.14-43.87Q385.73-614 359.79-614t-43.87 18.14Q298-577.73 298-551.79t18.14 43.87Q334.27-490 360.21-490Zm240 0q25.94 0 43.87-18.14Q662-526.27 662-552.21t-18.14-43.87Q625.73-614 599.79-614t-43.87 18.14Q538-577.73 538-551.79t18.14 43.87Q574.27-490 600.21-490ZM350-164v-121.69q0-5.39 3.46-8.85t8.85-3.46H454v134H350Zm156 0v-134h91.69q5.39 0 8.85 3.46t3.46 8.85V-164H506Zm-277.94 0q-26.58 0-45.32-18.89Q164-201.78 164-228.31V-624q0-71.67 50.17-121.83Q264.33-796 336-796h288q71.67 0 121.83 50.17Q796-695.67 796-624v395.69q0 26.53-18.89 45.42T731.69-164H662v-121.69q0-26.53-18.89-45.42T597.69-350H362.31q-26.58 0-45.51 18.89-18.92 18.89-18.92 45.42V-164h-69.82Z"/></svg>
